static/img/git-workflow.drawio.svg

<svg xmlns="http://www.w3.org/2000/svg" xmlns:xlink="http://www.w3.org/1999/xlink" width="516" height="488" viewBox="-0.5 -0.5 516 488"><rect width="120" height="60" x="200" y="9" fill="#FFF" stroke="#000" pointer-events="all" rx="9" ry="9"/><switch transform="translate(-.5 -.5)"><foreignObject width="100%" height="100%" pointer-events="none" requiredFeatures="http://www.w3.org/TR/SVG11/feature#Extensibility" style="overflow:visible;text-align:left"><div xmlns="http://www.w3.org/1999/xhtml" style="display:flex;align-items:unsafe center;justify-content:unsafe center;width:118px;height:1px;padding-top:39px;margin-left:201px"><div data-drawio-colors="color: rgb(0, 0, 0);" style="box-sizing:border-box;font-size:0;text-align:center"><div style="display:inline-block;font-size:12px;font-family:Helvetica;color:#000;line-height:1.2;pointer-events:all;white-space:normal;overflow-wrap:normal">main</div></div></div></foreignObject><text x="260" y="43" font-family="Helvetica" font-size="12" text-anchor="middle">main</text></switch><rect width="120" height="60" x="200" y="117" fill="#FFF" stroke="#000" pointer-events="all" rx="9" ry="9"/><switch transform="translate(-.5 -.5)"><foreignObject width="100%" height="100%" pointer-events="none" requiredFeatures="http://www.w3.org/TR/SVG11/feature#Extensibility" style="overflow:visible;text-align:left"><div xmlns="http://www.w3.org/1999/xhtml" style="display:flex;align-items:unsafe center;justify-content:unsafe center;width:118px;height:1px;padding-top:147px;margin-left:201px"><div data-drawio-colors="color: rgb(0, 0, 0);" style="box-sizing:border-box;font-size:0;text-align:center"><div style="display:inline-block;font-size:12px;font-family:Helvetica;color:#000;line-height:1.2;pointer-events:all;white-space:normal;overflow-wrap:normal">feature</div></div></div></foreignObject><text x="260" y="151" font-family="Helvetica" font-size="12" text-anchor="middle">feature</text></switch><rect width="120" height="60" x="50" y="357" fill="#FFF" stroke="#000" pointer-events="all" rx="9" ry="9"/><switch transform="translate(-.5 -.5)"><foreignObject width="100%" height="100%" pointer-events="none" requiredFeatures="http://www.w3.org/TR/SVG11/feature#Extensibility" style="overflow:visible;text-align:left"><div xmlns="http://www.w3.org/1999/xhtml" style="display:flex;align-items:unsafe center;justify-content:unsafe center;width:118px;height:1px;padding-top:387px;margin-left:51px"><div data-drawio-colors="color: rgb(0, 0, 0);" style="box-sizing:border-box;font-size:0;text-align:center"><div style="display:inline-block;font-size:12px;font-family:Helvetica;color:#000;line-height:1.2;pointer-events:all;white-space:normal;overflow-wrap:normal">feature-dev-a</div></div></div></foreignObject><text x="110" y="391" font-family="Helvetica" font-size="12" text-anchor="middle">feature-dev-a</text></switch><path fill="#FFF" stroke="#000" stroke-dasharray="3 3" stroke-miterlimit="10" d="M173 0h-23v200h23" pointer-events="all"/><path fill="none" stroke="#000" stroke-dasharray="3 3" stroke-miterlimit="10" d="M173 0h177v200H173m0-200v200" pointer-events="none"/><switch transform="rotate(-90 161 100)"><foreignObject width="100%" height="100%" pointer-events="none" requiredFeatures="http://www.w3.org/TR/SVG11/feature#Extensibility" style="overflow:visible;text-align:left"><div xmlns="http://www.w3.org/1999/xhtml" style="display:flex;align-items:unsafe center;justify-content:unsafe center;width:198px;height:1px;padding-top:100px;margin-left:63px"><div data-drawio-colors="color: rgb(0, 0, 0);" style="box-sizing:border-box;font-size:0;text-align:center"><div style="display:inline-block;font-size:12px;font-family:Helvetica;color:#000;line-height:1.2;pointer-events:none;font-weight:700;white-space:normal;overflow-wrap:normal">GitHub</div></div></div></foreignObject><text x="162" y="104" font-family="Helvetica" font-size="12" font-weight="bold" text-anchor="middle">GitHub</text></switch><path fill="#FFF" stroke="#000" stroke-dasharray="3 3" stroke-miterlimit="10" d="M23 287H0v200h23" pointer-events="none"/><path fill="none" stroke="#000" stroke-dasharray="3 3" stroke-miterlimit="10" d="M23 287h177v200H23m0-200v200" pointer-events="none"/><switch transform="rotate(-90 11 387)"><foreignObject width="100%" height="100%" pointer-events="none" requiredFeatures="http://www.w3.org/TR/SVG11/feature#Extensibility" style="overflow:visible;text-align:left"><div xmlns="http://www.w3.org/1999/xhtml" style="display:flex;align-items:unsafe center;justify-content:unsafe center;width:198px;height:1px;padding-top:387px;margin-left:-87px"><div data-drawio-colors="color: rgb(0, 0, 0);" style="box-sizing:border-box;font-size:0;text-align:center"><div style="display:inline-block;font-size:12px;font-family:Helvetica;color:#000;line-height:1.2;pointer-events:none;font-weight:700;white-space:normal;overflow-wrap:normal">machine developer A</div></div></div></foreignObject><text x="12" y="391" font-family="Helvetica" font-size="12" font-weight="bold" text-anchor="middle">machine developer A</text></switch><path fill="#FFF" stroke="#000" stroke-dasharray="3 3" stroke-miterlimit="10" d="M338 284h-23v200h23" pointer-events="none"/><path fill="none" stroke="#000" stroke-dasharray="3 3" stroke-miterlimit="10" d="M338 284h177v200H338m0-200v200" pointer-events="none"/><switch transform="rotate(-90 326 384)"><foreignObject width="100%" height="100%" pointer-events="none" requiredFeatures="http://www.w3.org/TR/SVG11/feature#Extensibility" style="overflow:visible;text-align:left"><div xmlns="http://www.w3.org/1999/xhtml" style="display:flex;align-items:unsafe center;justify-content:unsafe center;width:198px;height:1px;padding-top:384px;margin-left:228px"><div data-drawio-colors="color: rgb(0, 0, 0);" style="box-sizing:border-box;font-size:0;text-align:center"><div style="display:inline-block;font-size:12px;font-family:Helvetica;color:#000;line-height:1.2;pointer-events:none;font-weight:700;white-space:normal;overflow-wrap:normal">machine developer B</div></div></div></foreignObject><text x="327" y="388" font-family="Helvetica" font-size="12" font-weight="bold" text-anchor="middle">machine developer B</text></switch><rect width="120" height="60" x="365" y="354" fill="#FFF" stroke="#000" pointer-events="none" rx="9" ry="9"/><switch transform="translate(-.5 -.5)"><foreignObject width="100%" height="100%" pointer-events="none" requiredFeatures="http://www.w3.org/TR/SVG11/feature#Extensibility" style="overflow:visible;text-align:left"><div xmlns="http://www.w3.org/1999/xhtml" style="display:flex;align-items:unsafe center;justify-content:unsafe center;width:118px;height:1px;padding-top:384px;margin-left:366px"><div data-drawio-colors="color: rgb(0, 0, 0);" style="box-sizing:border-box;font-size:0;text-align:center"><div style="display:inline-block;font-size:12px;font-family:Helvetica;color:#000;line-height:1.2;pointer-events:none;white-space:normal;overflow-wrap:normal">feature-dev-b</div></div></div></foreignObject><text x="425" y="388" font-family="Helvetica" font-size="12" text-anchor="middle">feature-dev-b</text></switch><path fill="none" stroke="#6c8ebf" stroke-miterlimit="10" stroke-width="3" d="M114.52 347.96 200 177" pointer-events="none"/><path fill="#6c8ebf" stroke="#6c8ebf" stroke-miterlimit="10" stroke-width="3" d="M111.5 354v-10.06l3.02 4.02h5.03Z" pointer-events="none"/><path fill="none" stroke="#6c8ebf" stroke-miterlimit="10" stroke-width="3" d="M419.84 345.31 320 177" pointer-events="none"/><path fill="#6c8ebf" stroke="#6c8ebf" stroke-miterlimit="10" stroke-width="3" d="m423.29 351.12-8.46-5.45 5.01-.36 2.73-4.23Z" pointer-events="none"/><path fill="none" stroke="#6c8ebf" stroke-miterlimit="10" stroke-width="3" d="M225.48 186.04 140 357" pointer-events="none"/><path fill="#6c8ebf" stroke="#6c8ebf" stroke-miterlimit="10" stroke-width="3" d="M228.5 180v10.06l-3.02-4.02h-5.03Z" pointer-events="none"/><path fill="none" stroke="#6c8ebf" stroke-miterlimit="10" stroke-width="3" d="M295.16 185.69 395 354" pointer-events="none"/><path fill="#6c8ebf" stroke="#6c8ebf" stroke-miterlimit="10" stroke-width="3" d="m291.71 179.88 8.46 5.45-5.01.36-2.73 4.23Z" pointer-events="none"/><path fill="none" stroke="#6c8ebf" stroke-miterlimit="10" stroke-width="3" d="m320 69 130.67 275.87" pointer-events="none"/><path fill="#6c8ebf" stroke="#6c8ebf" stroke-miterlimit="10" stroke-width="3" d="m453.56 350.97-7.92-6.21 5.03.11 3.11-3.96Z" pointer-events="none"/><path fill="none" stroke="#6c8ebf" stroke-miterlimit="10" stroke-width="3" d="M200 69 83.89 347.67" pointer-events="none"/><path fill="#6c8ebf" stroke="#6c8ebf" stroke-miterlimit="10" stroke-width="3" d="m81.29 353.9-.69-10.03 3.29 3.8 5.02-.34Z" pointer-events="none"/><path fill="none" stroke="#6c8ebf" stroke-miterlimit="10" stroke-width="3" d="M260 117V79.1" pointer-events="none"/><path fill="#6c8ebf" stroke="#6c8ebf" stroke-miterlimit="10" stroke-width="3" d="m260 72.35 4.5 9-4.5-2.25-4.5 2.25Z" pointer-events="none"/><switch transform="translate(-.5 -.5)"><foreignObject width="100%" height="100%" pointer-events="none" requiredFeatures="http://www.w3.org/TR/SVG11/feature#Extensibility" style="overflow:visible;text-align:left"><div xmlns="http://www.w3.org/1999/xhtml" style="display:flex;align-items:unsafe center;justify-content:unsafe center;width:1px;height:1px;padding-top:97px;margin-left:262px"><div data-drawio-colors="color: rgb(0, 0, 0); background-color: rgb(255, 255, 255);" style="box-sizing:border-box;font-size:0;text-align:center"><div style="display:inline-block;font-size:11px;font-family:Helvetica;color:#000;line-height:1.2;pointer-events:none;background-color:#fff;white-space:nowrap">pull request</div></div></div></foreignObject><text x="262" y="100" font-family="Helvetica" font-size="11" text-anchor="middle">pull request</text></switch><switch><g requiredFeatures="http://www.w3.org/TR/SVG11/feature#Extensibility"/><a xlink:href="https://www.diagrams.net/doc/faq/svg-export-text-problems" target="_blank" transform="translate(0 -5)"><text x="50%" y="100%" font-size="10" text-anchor="middle">Text is not SVG - cannot display</text></a></switch></svg>

<?xml version="1.0" encoding="UTF-8"?>
<!-- Do not edit this file with editors other than diagrams.net -->
<!DOCTYPE svg PUBLIC "-//W3C//DTD SVG 1.1//EN" "http://www.w3.org/Graphics/SVG/1.1/DTD/svg11.dtd">
<svg xmlns="http://www.w3.org/2000/svg" xmlns:xlink="http://www.w3.org/1999/xlink" version="1.1" width="516px" height="488px" viewBox="-0.5 -0.5 516 488" content="&lt;mxfile host=&quot;app.diagrams.net&quot; modified=&quot;2022-11-23T14:14:43.970Z&quot; agent=&quot;5.0 (X11; Linux x86_64) AppleWebKit/537.36 (KHTML, like Gecko) Chrome/106.0.0.0 Safari/537.36&quot; etag=&quot;p9XiV5elgedQwVLlJfUo&quot; version=&quot;20.6.0&quot; type=&quot;device&quot;&gt;&lt;diagram id=&quot;oTkyJ0FLN5QMOXabpVVb&quot; name=&quot;Page-1&quot;&gt;7VpLV+MgGP01XdaTkNC0S2vHupgZ5+hixiUmXxuOJHQIffnrhzTkiX3oNLZ63HjK/eALXO4FQuw4V9FqLMgs/MEDYB1kBauOM+ogNOgj9TcF1hmAsZMBU0GDDLJL4J4+gwYtjc5pAEmtouScSTqrgz6PY/BlDSNC8GW92oSz+lNnZAoGcO8TZqK/aSDDDO1jq8RvgE7D/Mm2pSMRyStrIAlJwJcVyPnWca4E5zL7Fa2ugKXc5bxk7a63RIuOCYjlIQ1ubyKvT+6ExCMUhdejh+7TrKtnZ0HYXA84IjTWHZbrnAXB53EAaSK74wyXIZVwPyN+Gl2qaVdYKCOmw2bHdF8XICSsKpDu6Bh4BFKsVRUddVxNmlaN0xtk5WU5B3ZObFjhv6cxoqd9WqQumVE/NDmvIMoxiJoAkXMBZ8eV63kn5gpv46obwKJLTs6YPagz5tmnZqxvMDam8mb+aFCVLGnESAwpJ1zQZx5LkjJj7ScuIElYkHwEFtGg6VHLYBFZL7BYgEencfDCauaHVNGlNiBYAOMzEOr35Tnzajf83HNNdb4zr/lmvJfY4TkT62LcINY9NbHuzpXStP9/rpS7J/dgInFj+TR9/76rp20bNBrMQRxcpsdBVYp5JseSqZLWVJaKLrH+Uy086HqbwmhVDY3WeWlF5abRBdalh0qkbJQW8jaJFPypOFc6CplQxq4442LTaycg0J/4Cp8KElD1wErMA9KDMksl0vP78DjZRIiQ+bB9RpKE+jl8TRkrhhXokrXLaQmfCx/27/sq+xR2KU6fpSCoHb1NuVUEhV/QU44JYETSRf3A/pLI9BN+capGVu5jqCFn3NBpNm7dqnrAbiRyG77Ag0aijBgj0UbzxbD/wwbmuesoNrDbt8FBMm3bLceygfshbYCdhg3cj2qD3nFtUAgaVRVt71R0uYVceLhqH2uPfT7ZjuAcaAV8VlZwreYJ/KNawXwhOo4VvDdZAb3KCtuEv0vcTfPsMkld4wcao30ruF9WaMMKyHyF3WWFUgF73WC/xQpt7QrbzfF25aIv5Z5Uuagt5VrtL+Jtn2faV/UnPZqgRiIPvbOqzQ8qx1L1K948K7quyXrfW+75yvrQYwb6nLJ+x8X67zj8fmffraMf48nPy1tM7f5t17yJnM03rQT8nUMiTY2rCfhOHoHVpU0Yncap7pUAQKljmN7OUp+wSx2IaBCkOYYCEvpMHjf5UlHN0qFtBouHHTwqxGRc7xbfzHXjTnERtvfKODPv1vth66LnDdzaPKDjyKSeszG1fDJJ4JWzqorlF/isevlvDM63fw==&lt;/diagram&gt;&lt;/mxfile&gt;"><defs/><g><rect x="200" y="9" width="120" height="60" rx="9" ry="9" fill="rgb(255, 255, 255)" stroke="rgb(0, 0, 0)" pointer-events="all"/><g transform="translate(-0.5 -0.5)"><switch><foreignObject pointer-events="none" width="100%" height="100%" requiredFeatures="http://www.w3.org/TR/SVG11/feature#Extensibility" style="overflow: visible; text-align: left;"><div xmlns="http://www.w3.org/1999/xhtml" style="display: flex; align-items: unsafe center; justify-content: unsafe center; width: 118px; height: 1px; padding-top: 39px; margin-left: 201px;"><div data-drawio-colors="color: rgb(0, 0, 0); " style="box-sizing: border-box; font-size: 0px; text-align: center;"><div style="display: inline-block; font-size: 12px; font-family: Helvetica; color: rgb(0, 0, 0); line-height: 1.2; pointer-events: all; white-space: normal; overflow-wrap: normal;">main</div></div></div></foreignObject><text x="260" y="43" fill="rgb(0, 0, 0)" font-family="Helvetica" font-size="12px" text-anchor="middle">main</text></switch></g><rect x="200" y="117" width="120" height="60" rx="9" ry="9" fill="rgb(255, 255, 255)" stroke="rgb(0, 0, 0)" pointer-events="all"/><g transform="translate(-0.5 -0.5)"><switch><foreignObject pointer-events="none" width="100%" height="100%" requiredFeatures="http://www.w3.org/TR/SVG11/feature#Extensibility" style="overflow: visible; text-align: left;"><div xmlns="http://www.w3.org/1999/xhtml" style="display: flex; align-items: unsafe center; justify-content: unsafe center; width: 118px; height: 1px; padding-top: 147px; margin-left: 201px;"><div data-drawio-colors="color: rgb(0, 0, 0); " style="box-sizing: border-box; font-size: 0px; text-align: center;"><div style="display: inline-block; font-size: 12px; font-family: Helvetica; color: rgb(0, 0, 0); line-height: 1.2; pointer-events: all; white-space: normal; overflow-wrap: normal;">feature</div></div></div></foreignObject><text x="260" y="151" fill="rgb(0, 0, 0)" font-family="Helvetica" font-size="12px" text-anchor="middle">feature</text></switch></g><rect x="50" y="357" width="120" height="60" rx="9" ry="9" fill="rgb(255, 255, 255)" stroke="rgb(0, 0, 0)" pointer-events="all"/><g transform="translate(-0.5 -0.5)"><switch><foreignObject pointer-events="none" width="100%" height="100%" requiredFeatures="http://www.w3.org/TR/SVG11/feature#Extensibility" style="overflow: visible; text-align: left;"><div xmlns="http://www.w3.org/1999/xhtml" style="display: flex; align-items: unsafe center; justify-content: unsafe center; width: 118px; height: 1px; padding-top: 387px; margin-left: 51px;"><div data-drawio-colors="color: rgb(0, 0, 0); " style="box-sizing: border-box; font-size: 0px; text-align: center;"><div style="display: inline-block; font-size: 12px; font-family: Helvetica; color: rgb(0, 0, 0); line-height: 1.2; pointer-events: all; white-space: normal; overflow-wrap: normal;">feature-dev-a</div></div></div></foreignObject><text x="110" y="391" fill="rgb(0, 0, 0)" font-family="Helvetica" font-size="12px" text-anchor="middle">feature-dev-a</text></switch></g><path d="M 173 0 L 150 0 L 150 200 L 173 200" fill="rgb(255, 255, 255)" stroke="rgb(0, 0, 0)" stroke-miterlimit="10" stroke-dasharray="3 3" pointer-events="all"/><path d="M 173 0 L 350 0 L 350 200 L 173 200" fill="none" stroke="rgb(0, 0, 0)" stroke-miterlimit="10" stroke-dasharray="3 3" pointer-events="none"/><path d="M 173 0 L 173 200" fill="none" stroke="rgb(0, 0, 0)" stroke-miterlimit="10" stroke-dasharray="3 3" pointer-events="none"/><g transform="translate(-0.5 -0.5)rotate(-90 161.50000000000023 100)"><switch><foreignObject pointer-events="none" width="100%" height="100%" requiredFeatures="http://www.w3.org/TR/SVG11/feature#Extensibility" style="overflow: visible; text-align: left;"><div xmlns="http://www.w3.org/1999/xhtml" style="display: flex; align-items: unsafe center; justify-content: unsafe center; width: 198px; height: 1px; padding-top: 100px; margin-left: 63px;"><div data-drawio-colors="color: rgb(0, 0, 0); " style="box-sizing: border-box; font-size: 0px; text-align: center;"><div style="display: inline-block; font-size: 12px; font-family: Helvetica; color: rgb(0, 0, 0); line-height: 1.2; pointer-events: none; font-weight: bold; white-space: normal; overflow-wrap: normal;">GitHub</div></div></div></foreignObject><text x="162" y="104" fill="rgb(0, 0, 0)" font-family="Helvetica" font-size="12px" text-anchor="middle" font-weight="bold">GitHub</text></switch></g><path d="M 23 287 L 0 287 L 0 487 L 23 487" fill="rgb(255, 255, 255)" stroke="rgb(0, 0, 0)" stroke-miterlimit="10" stroke-dasharray="3 3" pointer-events="none"/><path d="M 23 287 L 200 287 L 200 487 L 23 487" fill="none" stroke="rgb(0, 0, 0)" stroke-miterlimit="10" stroke-dasharray="3 3" pointer-events="none"/><path d="M 23 287 L 23 487" fill="none" stroke="rgb(0, 0, 0)" stroke-miterlimit="10" stroke-dasharray="3 3" pointer-events="none"/><g transform="translate(-0.5 -0.5)rotate(-90 11.500000000000227 387)"><switch><foreignObject pointer-events="none" width="100%" height="100%" requiredFeatures="http://www.w3.org/TR/SVG11/feature#Extensibility" style="overflow: visible; text-align: left;"><div xmlns="http://www.w3.org/1999/xhtml" style="display: flex; align-items: unsafe center; justify-content: unsafe center; width: 198px; height: 1px; padding-top: 387px; margin-left: -87px;"><div data-drawio-colors="color: rgb(0, 0, 0); " style="box-sizing: border-box; font-size: 0px; text-align: center;"><div style="display: inline-block; font-size: 12px; font-family: Helvetica; color: rgb(0, 0, 0); line-height: 1.2; pointer-events: none; font-weight: bold; white-space: normal; overflow-wrap: normal;">machine developer A</div></div></div></foreignObject><text x="12" y="391" fill="rgb(0, 0, 0)" font-family="Helvetica" font-size="12px" text-anchor="middle" font-weight="bold">machine developer A</text></switch></g><path d="M 338 284 L 315 284 L 315 484 L 338 484" fill="rgb(255, 255, 255)" stroke="rgb(0, 0, 0)" stroke-miterlimit="10" stroke-dasharray="3 3" pointer-events="none"/><path d="M 338 284 L 515 284 L 515 484 L 338 484" fill="none" stroke="rgb(0, 0, 0)" stroke-miterlimit="10" stroke-dasharray="3 3" pointer-events="none"/><path d="M 338 284 L 338 484" fill="none" stroke="rgb(0, 0, 0)" stroke-miterlimit="10" stroke-dasharray="3 3" pointer-events="none"/><g transform="translate(-0.5 -0.5)rotate(-90 326.5 384)"><switch><foreignObject pointer-events="none" width="100%" height="100%" requiredFeatures="http://www.w3.org/TR/SVG11/feature#Extensibility" style="overflow: visible; text-align: left;"><div xmlns="http://www.w3.org/1999/xhtml" style="display: flex; align-items: unsafe center; justify-content: unsafe center; width: 198px; height: 1px; padding-top: 384px; margin-left: 228px;"><div data-drawio-colors="color: rgb(0, 0, 0); " style="box-sizing: border-box; font-size: 0px; text-align: center;"><div style="display: inline-block; font-size: 12px; font-family: Helvetica; color: rgb(0, 0, 0); line-height: 1.2; pointer-events: none; font-weight: bold; white-space: normal; overflow-wrap: normal;">machine developer B</div></div></div></foreignObject><text x="327" y="388" fill="rgb(0, 0, 0)" font-family="Helvetica" font-size="12px" text-anchor="middle" font-weight="bold">machine developer B</text></switch></g><rect x="365" y="354" width="120" height="60" rx="9" ry="9" fill="rgb(255, 255, 255)" stroke="rgb(0, 0, 0)" pointer-events="none"/><g transform="translate(-0.5 -0.5)"><switch><foreignObject pointer-events="none" width="100%" height="100%" requiredFeatures="http://www.w3.org/TR/SVG11/feature#Extensibility" style="overflow: visible; text-align: left;"><div xmlns="http://www.w3.org/1999/xhtml" style="display: flex; align-items: unsafe center; justify-content: unsafe center; width: 118px; height: 1px; padding-top: 384px; margin-left: 366px;"><div data-drawio-colors="color: rgb(0, 0, 0); " style="box-sizing: border-box; font-size: 0px; text-align: center;"><div style="display: inline-block; font-size: 12px; font-family: Helvetica; color: rgb(0, 0, 0); line-height: 1.2; pointer-events: none; white-space: normal; overflow-wrap: normal;">feature-dev-b</div></div></div></foreignObject><text x="425" y="388" fill="rgb(0, 0, 0)" font-family="Helvetica" font-size="12px" text-anchor="middle">feature-dev-b</text></switch></g><path d="M 114.52 347.96 L 200 177" fill="none" stroke="#6c8ebf" stroke-width="3" stroke-miterlimit="10" pointer-events="none"/><path d="M 111.5 354 L 111.5 343.94 L 114.52 347.96 L 119.55 347.96 Z" fill="#6c8ebf" stroke="#6c8ebf" stroke-width="3" stroke-miterlimit="10" pointer-events="none"/><path d="M 419.84 345.31 L 320 177" fill="none" stroke="#6c8ebf" stroke-width="3" stroke-miterlimit="10" pointer-events="none"/><path d="M 423.29 351.12 L 414.83 345.67 L 419.84 345.31 L 422.57 341.08 Z" fill="#6c8ebf" stroke="#6c8ebf" stroke-width="3" stroke-miterlimit="10" pointer-events="none"/><path d="M 225.48 186.04 L 140 357" fill="none" stroke="#6c8ebf" stroke-width="3" stroke-miterlimit="10" pointer-events="none"/><path d="M 228.5 180 L 228.5 190.06 L 225.48 186.04 L 220.45 186.04 Z" fill="#6c8ebf" stroke="#6c8ebf" stroke-width="3" stroke-miterlimit="10" pointer-events="none"/><path d="M 295.16 185.69 L 395 354" fill="none" stroke="#6c8ebf" stroke-width="3" stroke-miterlimit="10" pointer-events="none"/><path d="M 291.71 179.88 L 300.17 185.33 L 295.16 185.69 L 292.43 189.92 Z" fill="#6c8ebf" stroke="#6c8ebf" stroke-width="3" stroke-miterlimit="10" pointer-events="none"/><path d="M 320 69 L 450.67 344.87" fill="none" stroke="#6c8ebf" stroke-width="3" stroke-miterlimit="10" pointer-events="none"/><path d="M 453.56 350.97 L 445.64 344.76 L 450.67 344.87 L 453.78 340.91 Z" fill="#6c8ebf" stroke="#6c8ebf" stroke-width="3" stroke-miterlimit="10" pointer-events="none"/><path d="M 200 69 L 83.89 347.67" fill="none" stroke="#6c8ebf" stroke-width="3" stroke-miterlimit="10" pointer-events="none"/><path d="M 81.29 353.9 L 80.6 343.87 L 83.89 347.67 L 88.91 347.33 Z" fill="#6c8ebf" stroke="#6c8ebf" stroke-width="3" stroke-miterlimit="10" pointer-events="none"/><path d="M 260 117 L 260 79.1" fill="none" stroke="#6c8ebf" stroke-width="3" stroke-miterlimit="10" pointer-events="none"/><path d="M 260 72.35 L 264.5 81.35 L 260 79.1 L 255.5 81.35 Z" fill="#6c8ebf" stroke="#6c8ebf" stroke-width="3" stroke-miterlimit="10" pointer-events="none"/><g transform="translate(-0.5 -0.5)"><switch><foreignObject pointer-events="none" width="100%" height="100%" requiredFeatures="http://www.w3.org/TR/SVG11/feature#Extensibility" style="overflow: visible; text-align: left;"><div xmlns="http://www.w3.org/1999/xhtml" style="display: flex; align-items: unsafe center; justify-content: unsafe center; width: 1px; height: 1px; padding-top: 97px; margin-left: 262px;"><div data-drawio-colors="color: rgb(0, 0, 0); background-color: rgb(255, 255, 255); " style="box-sizing: border-box; font-size: 0px; text-align: center;"><div style="display: inline-block; font-size: 11px; font-family: Helvetica; color: rgb(0, 0, 0); line-height: 1.2; pointer-events: none; background-color: rgb(255, 255, 255); white-space: nowrap;">pull request</div></div></div></foreignObject><text x="262" y="100" fill="rgb(0, 0, 0)" font-family="Helvetica" font-size="11px" text-anchor="middle">pull request</text></switch></g></g><switch><g requiredFeatures="http://www.w3.org/TR/SVG11/feature#Extensibility"/><a transform="translate(0,-5)" xlink:href="https://www.diagrams.net/doc/faq/svg-export-text-problems" target="_blank"><text text-anchor="middle" font-size="10px" x="50%" y="100%">Text is not SVG - cannot display</text></a></switch></svg>
